X: 20932
M: 2/4
L: 1/16
K: F
V: 1 name="5"
c2cd c2f2 | f3c G2G2 | B3A F2AB  |\
c2cd c2f2 | f2e2 d2c2 | B3A B2c2 | F6 H|]
EF |\
c2cd c2f2 | f2e2d2c2 | B2A2 B2c2 | "^D.C."F6 |]


